icons/svg/amenity_colored/waste_basket.svg

<?xml version="1.0" encoding="UTF-8" standalone="no"?>
<!-- Created with Inkscape (http://www.inkscape.org/) -->

<svg
   xmlns:dc="http://purl.org/dc/elements/1.1/"
   xmlns:cc="http://creativecommons.org/ns#"
   xmlns:rdf="http://www.w3.org/1999/02/22-rdf-syntax-ns#"
   xmlns:svg="http://www.w3.org/2000/svg"
   xmlns="http://www.w3.org/2000/svg"
   xmlns:sodipodi="http://sodipodi.sourceforge.net/DTD/sodipodi-0.dtd"
   xmlns:inkscape="http://www.inkscape.org/namespaces/inkscape"
   version="1.0"
   width="580"
   height="580"
   id="svg2"
   sodipodi:version="0.32"
   inkscape:version="0.48.4 r9939"
   sodipodi:docname="hunting_stand.svg"
   inkscape:output_extension="org.inkscape.output.svg.inkscape">
  <metadata
     id="metadata10">
    <rdf:RDF>
      <cc:Work
         rdf:about="">
        <dc:format>image/svg+xml</dc:format>
        <dc:type
           rdf:resource="http://purl.org/dc/dcmitype/StillImage" />
        <cc:license
           rdf:resource="http://web.resource.org/cc/PublicDomain" />
        <dc:language>en</dc:language>
        <dc:title></dc:title>
      </cc:Work>
    </rdf:RDF>
  </metadata>
  <sodipodi:namedview
     inkscape:window-height="1004"
     inkscape:window-width="1920"
     inkscape:pageshadow="2"
     inkscape:pageopacity="0.0"
     guidetolerance="10.0"
     gridtolerance="10.0"
     objecttolerance="10.0"
     borderopacity="1.0"
     bordercolor="#666666"
     pagecolor="#ffffff"
     id="base"
     showgrid="false"
     inkscape:zoom="0.5"
     inkscape:cx="201.88658"
     inkscape:cy="234.98869"
     inkscape:window-x="1680"
     inkscape:window-y="0"
     inkscape:current-layer="svg2"
     showguides="true"
     inkscape:guide-bbox="true"
     inkscape:window-maximized="1" />
  <defs
     id="defs4">
    <inkscape:perspective
       sodipodi:type="inkscape:persp3d"
       inkscape:vp_x="0 : 290 : 1"
       inkscape:vp_y="0 : 1000 : 0"
       inkscape:vp_z="580 : 290 : 1"
       inkscape:persp3d-origin="290 : 193.33333 : 1"
       id="perspective12" />
    <style
       type="text/css"
       id="style6">
   
    .fil0 {fill:#EF7900}
   
  </style>
    <inkscape:perspective
       id="perspective6807"
       inkscape:persp3d-origin="29.116032 : 19.410688 : 1"
       inkscape:vp_z="58.232063 : 29.116032 : 1"
       inkscape:vp_y="0 : 1000 : 0"
       inkscape:vp_x="0 : 29.116032 : 1"
       sodipodi:type="inkscape:persp3d" />
    <inkscape:perspective
       id="perspective6954"
       inkscape:persp3d-origin="290 : 193.33333 : 1"
       inkscape:vp_z="580 : 290 : 1"
       inkscape:vp_y="0 : 1000 : 0"
       inkscape:vp_x="0 : 290 : 1"
       sodipodi:type="inkscape:persp3d" />
    <inkscape:perspective
       id="perspective2541"
       inkscape:persp3d-origin="240 : 160 : 1"
       inkscape:vp_z="480 : 240 : 1"
       inkscape:vp_y="0 : 1000 : 0"
       inkscape:vp_x="0 : 240 : 1"
       sodipodi:type="inkscape:persp3d" />
    <inkscape:perspective
       id="perspective2750"
       inkscape:persp3d-origin="215 : 143.33333 : 1"
       inkscape:vp_z="430 : 215 : 1"
       inkscape:vp_y="0 : 1000 : 0"
       inkscape:vp_x="0 : 215 : 1"
       sodipodi:type="inkscape:persp3d" />
    <inkscape:perspective
       id="perspective2830"
       inkscape:persp3d-origin="0.5 : 0.33333333 : 1"
       inkscape:vp_z="1 : 0.5 : 1"
       inkscape:vp_y="0 : 1000 : 0"
       inkscape:vp_x="0 : 0.5 : 1"
       sodipodi:type="inkscape:persp3d" />
  </defs>
  <g
     id="g1327">
    <path
       d="M 66.275,1.768 C 24.94,1.768 1.704,23.139 1.704,66.804 L 1.704,516.927 C 1.704,557.771 22.598,579.156 63.896,579.156 L 515.92,579.156 C 557.227,579.156 578.149,558.84 578.149,516.927 L 578.149,66.804 C 578.149,24.203 557.227,1.768 514.627,1.768 C 514.624,1.768 66.133,1.625 66.275,1.768 z"
       style="fill:#111111;stroke:#eeeeee;stroke-width:3.40799999"
       id="path1329" />
  </g>
  <path
     inkscape:connector-curvature="0"
     style="text-indent:0;text-align:start;line-height:normal;text-transform:none;block-progression:tb;color:#000000;fill:#ffffff;fill-opacity:1;stroke:none;overflow:visible;enable-background:accumulate;font-family:Bitstream Vera Sans;-inkscape-font-specification:Bitstream Vera Sans"
     d="m 263.7206,105.51771 c -10.98267,0 -21.76339,2.17304 -29.5643,9.85477 -7.8009,7.68186 -10.26538,31.3241 -10.26538,42.64408 l -52.14816,0 c -7.23996,0 -13.13968,5.89971 -13.13968,13.13969 l -13.1397,0 0,26.27938 289.07324,0 0,-26.27937 -13.13969,0 c 0,-7.23998 -5.89972,-13.1397 -13.13969,-13.1397 l -52.14815,0 c 0,-11.31998 -2.4645,-34.96222 -10.26539,-42.64408 -7.80092,-7.68173 -18.58164,-9.85477 -29.56433,-9.85477 z m 0,27.10061 52.55877,0 c 7.16325,0 9.46309,1.67374 10.26539,2.46369 0.80284,0.7897 2.46369,15.58315 2.46369,22.93455 l -78.01692,0 c 0,-7.3514 1.66139,-22.14445 2.4637,-22.93455 0.80284,-0.78969 3.10214,-2.46369 10.26537,-2.46369 z m -91.97784,92.20981 0,210.23508 c 0,21.73306 17.68603,39.41908 39.41908,39.41908 l 157.67633,0 c 21.73305,0 39.41907,-17.68602 39.41907,-39.41908 l 0,-210.23508 -236.51447,0 z m 52.55877,39.41908 26.27939,0 0,157.67632 -26.27939,0 0,-157.67632 z m 52.55877,0 26.27939,0 0,157.67632 -26.27939,0 0,-157.67632 z m 52.55877,0 26.27939,0 0,157.67632 -26.27939,0 0,-157.67632 z"
     overflow="visible"
     id="path4"
     sodipodi:nodetypes="sscsccccccscsssssccccscssssccccccccccccccccccccc" />
</svg>

<svg width="580" height="580" viewBox="0 0 580 580" fill="none" xmlns="http://www.w3.org/2000/svg">
<g clip-path="url(#clip0)">
<path d="M66.2751 1.76799C24.9401 1.76799 1.7041 23.139 1.7041 66.804V516.927C1.7041 557.771 22.5981 579.156 63.8961 579.156H515.92C557.227 579.156 578.149 558.84 578.149 516.927V66.804C578.149 24.203 557.227 1.76799 514.627 1.76799C514.624 1.76799 66.1331 1.62499 66.2751 1.76799Z" fill="#111111" stroke="#EEEEEE" stroke-width="3.408"/>
<path d="M263.721 105.518C252.738 105.518 241.957 107.691 234.156 115.372C226.355 123.054 223.891 146.697 223.891 158.017H171.743C164.503 158.017 158.603 163.916 158.603 171.156H145.463V197.436H434.537V171.156H421.397C421.397 163.916 415.497 158.017 408.257 158.017H356.109C356.109 146.697 353.645 123.054 345.844 115.372C338.043 107.691 327.262 105.518 316.279 105.518H263.721ZM263.721 132.618H316.279C323.443 132.618 325.742 134.292 326.545 135.082C327.348 135.872 329.008 150.665 329.008 158.017H250.992C250.992 150.665 252.653 135.872 253.455 135.082C254.258 134.292 256.557 132.618 263.721 132.618ZM171.743 224.828V435.063C171.743 456.796 189.429 474.482 211.162 474.482H368.838C390.571 474.482 408.257 456.796 408.257 435.063V224.828H171.743V224.828ZM224.302 264.247H250.581V421.924H224.302V264.247ZM276.86 264.247H303.14V421.924H276.86V264.247ZM329.419 264.247H355.698V421.924H329.419V264.247Z" fill="white"/>
</g>
<defs>
<clipPath id="clip0">
<path d="M0 0H580V580H0V0Z" fill="white"/>
</clipPath>
</defs>
</svg>
